X:112
T:score198
L:1/8
Q:1/4=96
M:4/4
I:linebreak $
K:G
!p! d2 | d2 B2 cBAG | e2 g4 fe | d2 cB ABcA |$ B2 G4 A2 | B^cdB cdec | defd efge |$ fg a2 A2 ^c2 | %8
 d6 |] %9
